X:1
T: The Rose Among the Heather
C:
R:Strathspey
Q: 128
K:D
M:4/4
L:1/16
|:G2|FA3 A3F GB3 B3G|FA3 D3F E6 G2|FA3 A3F G3B d3B|AF3 G3E D6 G2|
FA3 A3F GB3 B3G|FA3 D3F E6 G2|FA3 A3F G3B d3B|AF3 G3E D6:|
|:A2|d3e d3B Af3 d3B|A3B df3 e6 A2|f3g f3e d3B d3B|Ad3 e3c d6 A2|
d3e d3B Af3 d3B|A3B df3 e6 A2|f3e d3B A3F d3B|AF3 G3E D6:|
